!!!!SEGMENT: pl-kozmzk--mzk-m-31--017_szymanowska-maria--preludium-b-dur.krn
!!!cenid: 18xx:453
!!!COM: Szymanowska, Maria
!!!COM-rismID: pe140138
!!!CDT: 1789/12/14-1831/07/25
!!!CNT: Polish
!!!GTL: Vingt Exercices et Préludes pour le Pianoforte
!!!OTL: Preludium B-dur
!!!PDT: 1819
!!!AGN: Secular; Prelude
!!!SMS-siglum: PL-KOZmzk
!!!SMS-shelfmark: mzk/m/31
!!!SMS-shelfwork: 017 G
!!!SMS-variant:
!!!SMS-altvar:
!!!NIFC-rismSourceID: 1001025340
!!!NIFC-islandoraID: pl-kozmzk:6325
!!!URL-pdf-islandora: https://repozytorium.nifc.pl/islandora/object/pl-kozmzk%3A6325/datastream/PDF/view
!!!URL-scan: https://polish.musicsources.pl/pl/lokalizacje/galeria/rekopisy/462 @EN{Scan on Polish Music Herritage in Open Access Website} @PL{Skany w portalu Dziedzictwo Muzyki Polskiej w otwartym dostępie}
!!!ONB-nifc:
!!!AIN: 1 piano
!!!key:
**kern	**kern	**dynam
*part1	*part1	*part1
*staff2	*staff1	*
*Ipiano	*Iempty	*
*I"Piano	*	*
*I'P-no	*	*
*clefF4	*clefG2	*
*k[b-e-]	*k[b-e-]	*
*B-:	*B-:	*
*M6/8	*M6/8	*
!	!LO:TX:a:B:t=Con fuoco	!
8r	8ffs$\	.
=1	=1	=1
!LO:TX:a:t=P:problem=mixed beam	!	!
8BB-\L 8B-\	4b-\ 4dd\ 4bb-\	f
8BBB-/J	.	.
2r	16B-/LL 16d/	.
.	16c/JJ 16e-/	.
.	16d/LL 16f/	.
.	16e-/ 16g/	.
.	16f/ 16a/	.
.	16g/ 16b-/	.
.	16a/ 16cc/	.
.	16b-/JJ 16dd/	.
=2	=2	=2
2.r	16cc\LL 16ee-\	.
.	16dd\ 16ff\	.
.	16ee-\ 16gg\	.
.	16ff\ 16aa\	.
.	16gg\ 16bb-\	.
.	16aa\JJ 16ccc\	.
*	*8va	*
.	16bb-\LL 16ddd\	.
.	16ccc\ 16eee-\	.
.	16ddd\ 16fff\	.
.	16eee-\ 16ggg\	.
.	16fff\ 16aaa\	.
.	16ggg\JJ 16bbb-\	.
=3	=3	=3
!LO:TX:a:t=P:problem=mixed beam	!	!
8E-\L 8e-\	4eee-\ 4ggg\	.
8EE-/J	.	.
*	*X8va	*
!	!LO:TX:a:t=loco	!
2r	16ee-\LL 16gg\	.
.	16ff\JJ 16aa\	.
.	16gg\LL 16bb-\	.
.	16ff\ 16aa\	.
.	16ee-\ 16gg\	.
.	16dd\ 16ff\	.
.	16cc\ 16ee-\	.
.	16b-\JJ 16dd\	.
!!LO:LB:g=original
=4	=4	=4
2.FF\ 2.F\	16a/ 16cc/	.
.	16ff\LL 16fff\	.
.	16gg\ 16eeen\	.
.	16aa\ 16eee-X\	.
.	16bb-\ 16ddd\	.
!	!LO:TX:a:t=P:problem=diminuendolike accent	!
.	16een^\JJ [16ddd-X\	.
.	16ff\LL 16ddd-\]	.
!	!LO:TX:a:t=P:problem=diminuendolike accent	!
.	16ee-X^\ [16ccc\	.
.	16ddn\ 16ccc\]	.
!	!LO:TX:a:t=P:problem=diminuendolike accent	!
.	16dd-X^\ 16bb-\	.
.	16f\	.
.	16cc\JJ 16ee-\ 16aa\	.
=5	=5	=5
(16BB-\LL	8.b-\L 8.dd\ 8.bb-\	.
16F\	.	.
16B-\	.	.
16d\	16ff\L 16ddd\	.
16B-\	16een\ 16ccc#X\	.
16F\JJ)	16ff\JJ 16ddd\	.
16BB-\LL	(16een\LL 16ccc#X\	.
16F\	16ff\) 16ddd\	.
16B-\	(16ee\ 16ccc#\	.
16d\	16ff\) 16ddd\	.
16B-\	(16ee\ 16ccc#\	.
16F\JJ	16ff\JJ) 16ddd\	.
=6	=6	=6
16BB-\LL	16gg\LL 16eee-\	.
16F\	16ff\ 16ddd\	.
16B-\	16een\ 16ccc#X\	.
16d\	16ff\ 16ddd\	.
16B-\	16gg\ 16eee-X\	.
16F\JJ	16ff\JJ 16ddd\	.
16BB-\LL	4dd\ 4bb-\	.
16F\	.	.
16B-\	.	.
16d\	.	.
16B-\	8r	.
16F\JJ	.	.
!!LO:LB:g=original
=7	=7	=7
16BB-\LL	4ee-\ 4ccc\	.
16F\	.	.
16A\	.	.
16e-\	.	.
16A\	(16ddn\LL 16bbn\	.
16F\JJ	16ee-\JJ) 16ccc\	.
16BB-\LL	(16dd\LL 16bb\	.
16F\	16ee-\) 16ccc\	.
16A\	(16dd\ 16bb\	.
16e-\	16ee-\) 16ccc\	.
16A\	(16dd\ 16bb\	.
16F\JJ	16ee-\JJ) 16ccc\	.
=8	=8	=8
16FF\LL	(16ee-\LL 16ccc\	.
16C\	16dd^\) 16bb-X\	.
16E-\	(16cc\ 16aa\	.
16A\	16ee-^\) 16gg\	.
16E-\	(16a\ 16ff\	.
16C\JJ	16cc^\JJ) 16ee-\	.
16FF\LL	4b-\ 4dd\	.
16C\	.	.
16E-\	.	.
16A\	.	.
16E-\	8r	.
16C\JJ	.	.
=9	=9	=9
.	8qd/	p
16BB-\LL	4f/ 4dd/	.
16D\	.	.
16F\	.	.
16B-\	.	.
16F\	16en/LL 16cc#X/	.
16D\JJ	16f/JJ 16dd/	.
16BB-\LL	16e/LL 16cc#/	.
16D\	16f/ 16dd/	.
16F\	16e/ 16cc#/	.
16B-\	16f/ 16dd/	.
16F\	16e/ 16cc#/	.
16D\JJ	16f/JJ 16dd/	.
!!LO:LB:g=original
=10	=10	=10
*	*^	*
16GG\LL	16dd/LL	8a-X^\L	.
16D\	16cc/	.	.
16G\	16bn/	8f^\	.
16Bn\	16a-X/	.	.
16G\	16g/	8d^\J	.
16D\JJ	16f/JJ	.	.
16CC/LL	4c/ 4e-/	4rcyy	.
16GG/	.	.	.
16E-/	.	.	.
16GG/	.	.	.
16CC/	8r	8reyy	.
16GG/JJ	.	.	.
*	*v	*v	*
=11	=11	=11
16GGG/LL	4e-/ 4cc/	.
16EE-/	.	.
16C/	.	.
16EE-/	.	.
16GGG/	16d/LL 16bn/	.
16EE-/JJ	16e-/JJ 16cc/	.
16GGG/LL	16d/LL 16b/	.
16DD/	16e-/ 16cc/	.
16BBn/	16d/ 16b/	.
16DD/	16e-/ 16cc/	.
16GGG/	16d/ 16b/	.
16DD/JJ	16e-/JJ 16cc/	.
=12	=12	=12
4CC/	16e-`/ 16cc/	.
.	(16cc\LL 16ccc\	.
.	16ff\ 16aa-X\	.
.	16dd\ 16bb-\	.
8r	16ee-\ 16gg\	.
.	16cc\JJ) 16aa-\	.
8r	16dd\LL 16ff\	.
.	16bn\ 16gg\	.
8GG\L 8G\	16dd\ 16ff\	.
.	16b^\ 16aa-X\	.
8GG\J 8G\	16dd\ 16ff\	.
.	16b\JJ 16gg\	.
!!LO:LB:g=original
=13	=13	=13
4C/	16cc`\ 16ee-\	.
.	(16cc\LL 16ccc\	.
.	16ff\ 16aa-X\	.
.	16dd\ 16bb-\	.
8r	16ee-\ 16gg\	.
.	16cc\JJ) 16aa-\	.
8r	16dd\LL 16ff\	.
.	16bn\ 16gg\	.
8GG\L 8G\	16dd\ 16ff\	.
.	16b^\ 16aa-X\	.
8GG\J 8G\	16dd\ 16ff\	.
.	16b\JJ 16gg\	.
=14	=14	=14
4C/	16cc\ 16ee-\	.
*	*8va	*
.	16ccc\LL 16cccc\	.
.	16fff\ 16aaa-X\	.
.	16ddd\ 16bbb-\	.
8r	16eee-\ 16ggg\	.
.	16ccc\JJ 16aaa-\	.
4r	16ddd\LL 16fff\	>
.	16bbn\ 16ggg\	.
.	16ccc\ 16eee-\	.
.	16aa\ 16fff\	.
8r	16bb\ 16ddd\	.
.	16gg\JJ 16eee-\	.
=15	=15	=15
4r	16aa/LL 16ccc/	.
.	16ff/ 16ddd/	.
.	16gg/ 16bb-/	.
.	16een/ 16ccc/	.
8r	16ff/ 16aa/	.
.	16dd/JJ 16bb-/	.
*	*X8va	*
!	!LO:TX:a:t=loco	!
8r	16een\LL 16gg\	.
.	16cc#X\ 16aa\	.
8GG\L 8G\	16ee\ 16gg\	.
.	16cc#\ 16bb-\	.
8GG\J 8G\	16ee\ 16gg\	.
.	16cc#\JJ 16aa\	.
!!LO:PB:g=original
=16	=16	=16
4D\	16dd\ 16ff\	.
.	16dd\LL 16ddd\	.
.	16gg\ 16bb-\	.
.	16een\ 16ccc\	.
8r	16ff\ 16aa\	.
.	16dd\JJ 16bb-\	.
8r	16ee\LL 16gg\	.
.	16cc#X\ 16aa\	.
8AA\L 8A\	16ee\ 16gg\	.
.	16cc#\ 16bb-\	.
8AA\J 8A\	16ee\ 16gg\	.
.	16cc#\JJ 16aa\	.
=17	=17	=17
4D\	16dd\ 16ff\	.
.	16dd\LL 16ddd\	.
.	16gg\ 16bb-\	.
.	16een\ 16ccc\	.
8r	16ff\ 16aa\	.
.	16dd\JJ 16bb-\	.
8r	16ee\LL 16gg\	.
.	16cc#X\ 16aa\	.
8AA\L 8A\	16ee\ 16gg\	.
.	16cc#\ 16bb-\	.
8AA\J 8A\	16ee\ 16gg\	.
.	16cc#\JJ 16aa\	.
=18	=18	=18
4D/	16dd\ 16ff\	.
.	16dd\LL 16ddd\	.
.	16gg\ 16bb-\	.
.	16een\ 16ccc\	.
8r	16ff\ 16aa\	.
.	16dd\JJ 16bb-\	.
4r	16ee\LL 16gg\	.
.	16cc\ 16aa\	.
.	16dd\ 16ff\	.
.	16bn\ 16gg\	.
8r	16cc\ 16ee\	.
.	16a\JJ 16ff\	.
!!LO:LB:g=original
=19	=19	=19
2.r	16bn/LL 16dd/	.
.	16g/ 16een/	.
.	16a/ 16cc/	.
.	16f/ 16dd/	.
!	!LO:TX:b:t=per - dendosi	!
.	16g/ 16bn/	.
.	16en/JJ 16cc/	.
.	16f/LL 16a/	.
.	16d/ 16b/	.
.	16f/ 16a-X/	.
.	16d/ 16b/	.
.	16f/ 16g/	.
.	16d/JJ 16bn/	.
=20||	=20||	=20||
*k[]	*k[]	*
!LO:TX:a:t=P:problem=mixed beam	!	!
8C\L 8c\	4e/ 4g/ 4cc/	f
8CC/J	.	.
2r	16c/LL 16e/	.
.	16d/JJ 16f/	.
.	16e/LL 16g/	.
.	16f/ 16a/	.
.	16g/ 16b/	.
.	16a/ 16cc/	.
.	16b/ 16dd/	.
.	16cc/JJ 16ee/	.
=21	=21	=21
2.r	16dd\LL 16ff\	.
.	16ee\ 16gg\	.
.	16ff\ 16aa\	.
.	16gg\ 16bb\	.
.	16aa\ 16ccc\	.
.	16bb\JJ 16ddd\	.
*	*8va	*
.	16ccc\LL 16eee\	.
.	16ddd\ 16fff\	.
.	16eee\ 16ggg\	.
.	16fff\ 16aaa\	.
.	16ggg\ 16bbb\	.
.	16aaa\JJ 16cccc\	.
!!LO:LB:g=original
=22	=22	=22
!LO:TX:a:t=P:problem=mixed beam	!	!
8F\L 8f\	4fff\ 4aaa\	.
8FF/J	.	.
*	*X8va	*
!	!LO:TX:a:t=loco	!
2r	16ff\LL 16aa\	.
.	16gg\JJ 16bb\	.
.	16aa\LL 16ccc\	.
.	16gg\ 16bb\	.
.	16ff\ 16aa\	.
.	16ee\ 16gg\	.
.	16dd\ 16ff\	.
.	16cc\JJ 16ee\	.
=23	=23	=23
2.GG\ 2.G\	(16b\ 16dd\	.
.	16g\LL 16gg\	.
.	16a\ 16ff#X\	.
.	16b\ 16ffn\	.
.	16cc\ 16ee\	.
.	16f#X^\JJ [16ee-X\	.
.	16g/LL 16ee-/]	.
.	16fn^/ [16dd/	.
.	16en/ 16dd/]	.
.	16e-X^/ 16cc/	.
.	16G/	.
.	16d^/JJ) 16f/ 16b/	.
=24	=24	=24
4CC/ 4C/	4c/ 4en/ 4cc/	f
(16C/LL 16E/	(16c/LL 16e/	p
16D/JJ 16F/	16d/JJ 16f/	.
16E\LL 16G\	16e/LL 16g/	.
16F\ 16A\	16f/ 16a/	.
16E\ 16G\	16e/ 16g/	.
16D\ 16F\	16d/ 16f/	.
16C#X\) 16E\	16c#X/) 16e/	.
16AA`\JJ 16A\	16a/JJ 16cc#X/ 16ee/ 16aa/	f
!!LO:LB:g=original
=25	=25	=25
4DD`/ 4D/	4a\ 4dd\ 4ff\ 4aa\	f
16D\LL 16F\	(16d/LL 16f/	p
(16E\JJ 16G\	16e/JJ 16g/	.
16F\LL 16A\	16f/LL 16a/	.
16G\ 16B-X\	16g/ 16b-X/	.
16F\ 16A\	16f/ 16a/	.
16E\ 16G\	16e/ 16g/	.
16D#X\ 16F#X\	16d#X/) 16f#X/	.
16BBn\JJ) 16Bn\	16bn/JJ 16dd#X/ 16ff#X/ 16bbn/	f
=26	=26	=26
4EE/ 4E/	4b\ 4ee\ 4gg\ 4bb\	.
16E\LL 16G\	16e/LL 16g/	p
!	!LO:SIC:o:s=:v:f#	!
16F\JJ 16A\	16f#X/JJ 16a/	.
16G\LL 16B\	16g/LL 16b/	.
16A\ 16c\	16a/ 16cc/	.
16G\ 16B\	16g/ 16b/	.
!	!LO:SIC:o:s=:v:f#	!
16F\ 16A\	16f#/ 16a/	.
16E#X\ 16G#X\	16e#X/ 16g#X/	.
16C#X\JJ 16c#X\	16cc#X/JJ 16ee#X/ 16gg#X/ 16ccc#X/	.
=27	=27	=27
!	!LO:SIC:o:s=:v:cc#	!
4FF#X/ 4F#X/	16cc\ 16ff#X\ 16aa#X\ 16ccc#X\	f
.	16ff#\LL 16fff#X\	.
.	16bb\ 16ddd\	.
.	16gg#X\ 16eee\	.
8r	16aan\ 16ccc#X\	.
.	16ff#\JJ 16ddd\	.
8r	16gg#\LL 16bb\	.
.	16ee#X\ 16ccc#\	.
8C#X\L 8c#X\	16gg#\ 16bb\	.
.	16ee#\ 16ddd\	rfz
8C#\J 8c#\	16gg#\ 16bb\	.
.	16ee#\JJ 16ccc#\	.
!!LO:LB:g=original
=28	=28	=28
4F#X\	16ff#X\ 16aa\	.
.	16ff#\LL 16fff#X\	.
.	16bb\ 16ddd\	.
.	16gg#X\ 16eee\	.
8r	16aa\ 16ccc#X\	.
.	16ff#\JJ 16ddd\	.
8r	16gg#\LL 16bb\	.
.	16ee#X\ 16ccc#\	.
8C#X\L 8c#X\	16gg#\ 16bb\	.
.	16ee#\ 16ddd\	rfz
8C#\J 8c#\	16gg#\ 16bb\	.
.	16ee#\JJ 16ccc#\	.
=29	=29	=29
4F#X\	16ff#X\ 16aa\	.
.	16ff#\LL 16fff#X\	.
.	16bb\ 16ddd\	.
.	16gg#X\ 16eee\	.
8r	16aa\ 16ccc#X\	.
.	16ff#\JJ 16ddd\	.
8r	16gg#\LL 16bb\	.
.	16ee#X\ 16ccc#\	.
4r	16gg#\ 16bb\	.
.	16een\ 16cccn\	.
.	16ff#\ 16aa\	.
.	16dd#X\JJ 16bb\	.
=30	=30	=30
!	!LO:TX:b:t=man-can-do	!
2.r	16ff#X\LL 16aa\	.
.	16ee\ 16ccc\	.
.	16ff#\ 16aa\	.
.	16dd#X\ 16bb\	.
.	16ff#\ 16aa\	.
.	16ee\JJ 16ccc\	.
.	16ff#\LL 16aa\	.
.	16dd#\ 16bb\	.
.	16ff#\ 16aa\	.
.	16ee\ 16ccc\	.
.	16ff#\ 16aa\	.
.	16dd#\JJ 16bb\	.
!LO:TX:b:t=3043	!	!
!!LO:PB:g=original
=31||	=31||	=31||
*k[f#c#g#d#]	*k[f#c#g#d#]	*
!LO:TX:a:t=P:problem=mixed beam	!	!
8E\L 8e\	4ee\ 4gg#\ 4bb\ 4eee\	f
8EE/J	.	.
8r	16E</LL 16G#</	.
.	16F#</JJ 16A</	.
4r	16G#</LL 16B</	.
.	16A</ 16c#</	.
.	16B</ 16d#</	.
.	16c#/ 16e/	.
8r	16d#/ 16f#/	.
.	16e/JJ 16g#/	.
=32	=32	=32
2.r	16f#\LL 16a\	.
.	16g#\ 16b\	.
.	16a\ 16cc#\	.
.	16b\ 16dd#\	.
.	16cc#\ 16ee\	.
.	16dd#\JJ 16ff#\	.
.	16ee\LL 16gg#\	.
.	16ff#\ 16aa\	.
.	16gg#\ 16bb\	.
.	16aa\ 16ccc#\	.
.	16bb\ 16ddd#\	.
.	16ccc#\JJ 16eee\	.
=33	=33	=33
!LO:TX:a:t=P:problem=mixed beam	!	!
8AA\L 8A\	4aa\ 4ccc#\	.
8AAA/J	.	.
8r	16aa\LL 16ccc#\	.
.	16bb\JJ 16ddd#\	.
4r	(16ccc#\LL 16eee\	.
.	16bb\ 16ddd#\	.
.	16aa\ 16ccc#\	.
.	16gg#\ 16bb\	.
8r	16ff#\ 16aa\	.
.	16ee\JJ 16gg#\)	.
=34	=34	=34
2.BB\ 2.B\	16dd#\ 16ff#\	.
.	(16b\LL 16bb\	.
.	16cc#\ 16aa#X\	.
.	16dd#\ 16aan\	.
.	16ee\ 16gg#\	.
.	16a#X^\JJ [16ggn\	.
.	16b/LL 16gg/]	.
.	16an^/ [16ff#/	.
.	16g#X^/ 16ff#/]	.
.	16gn/ 16ee/	.
.	16B^/	.
.	16f#/JJ 16a/ 16dd#/	.
=35	=35	=35
16EE\LL	8.e\L) 8.g#\ 8.ee\	.
16BB\	.	.
16G#\	.	.
16BB\	16b\L 16gg#\	.
16EE\	16a#X\ 16ff##X\	.
16BB\JJ	16b\JJ 16gg#\	.
*rep	*	*
16EE\LL	16a#\LL 16ff##\	.
16BB\	16b\ 16gg#\	.
16G#\	16a#\ 16ff##\	.
16BB\	16b\ 16gg#\	.
16EE\	16a#\ 16ff##\	.
16BB\JJ	16b\JJ 16gg#\	.
*Xrep	*	*
!!LO:LB:g=original
=36	=36	=36
16EE/LL	16cc#\LL 16aan\	.
16BB/	16b\ 16gg#\	.
16G#/	16a#X\ 16ff##X\	.
16BB/	16b\ 16gg#\	.
16EE/	16cc#\ 16aa\	.
16BB/JJ	16b\JJ 16gg#\	.
*rep	*	*
16EE/LL	4g#\ 4ee\	.
16BB/	.	.
16G#/	.	.
16BB/	.	.
16EE/	8r	.
16BB/JJ	.	.
*Xrep	*	*
=37	=37	=37
16EE/LL	4a/ 4ff#/	.
16AA/	.	.
16D#X/	.	.
16AA/	.	.
16EE/	(16g#/LL 16ee#X/	.
16AA/JJ	16a/JJ) 16ff#/	.
*rep	*	*
16EE/LL	(16g#/LL 16ee#/	.
16AA/	16a/) 16ff#/	.
16D#/	(16g#/ 16ee#/	.
16AA/	16a/) 16ff#/	.
16EE/	(16g#/ 16ee#/	.
16AA/JJ	16a/JJ) 16ff#/	.
*Xrep	*	*
=38	=38	=38
16BBB/LL	(16a/LL 16ff#/	.
16FF#/	16g#/) 16ee/	.
16BB/	(16f#/ 16dd#/	.
16FF#/	16a/) 16cc#/	.
16BBB/	(16d#/ 16b/	.
16FF#/JJ	16f#/JJ) 16a/	.
16EE/LL	4e/ 4g#/	.
16BB/	.	.
16E/	.	.
16BB/	.	.
16EE/	8r	.
16BB/JJ	.	.
=39	=39	=39
16EE/LL	4B/ 4gn/	.
16BB/	.	.
16Gn/	.	.
16BB/	.	.
16EE/	(16A#X/LL 16f#/	.
16BB/JJ	16B/JJ) 16gn/	.
*rep	*	*
16EE/LL	(16A#/LL 16f#/	.
16BB/	16B/) 16g/	.
16G/	(16A#/ 16f#/	.
16BB/	16B/) 16g/	.
16EE/	(16A#/ 16f#/	.
16BB/JJ	16B/JJ) 16g/	.
*Xrep	*	*
!!LO:LB:g=original
=40	=40	=40
16EE/LL	16cn/LL 16a/	.
16BB/	16B/ 16gn/	.
16Gn/	16A#X/ 16f#/	.
16BB/	16B/ 16g/	.
16EE/	16cn/ 16an/	.
16BB/JJ	16Bn/JJ 16g/	.
*rep	*	*
16EE/LL	4Gn/ 4e/	.
16BB/	.	.
16G/	.	.
16BB/	.	.
16EE/	8r	.
16BB/JJ	.	.
*Xrep	*	*
=41	=41	=41
16CCn/LL	4Gn/ 4e/	.
16AA#X/	.	.
16E/	.	.
16AA#/	.	.
16CC/	(16F#/LL 16d#/	.
16AA#/JJ	16G/JJ) 16e/	.
*rep	*	*
16CC/LL	(16F#/LL 16d#/	.
16AA#/	16G/) 16e/	.
16E/	(16F#/ 16d#/	.
16AA#/	16G/) 16e/	.
16CC/	(16F#/ 16d#/	.
16AA#/JJ	16G/JJ) 16e/	.
*Xrep	*	*
=42||	=42||	=42||
*k[fncngndnb-e-]	*k[fncngndnb-e-]	*
16CC/LL	4B-/ 4g/	.
16GG/	.	.
16En/	.	.
16GG/	.	.
16CC/	(16A/LL 16f#X/	.
16GG/JJ	16B-/JJ) 16g/	.
*rep	*	*
16CC/LL	(16A/LL 16f#/	.
16GG/	16B-/) 16g/	.
16E/	(16A/ 16f#/	.
16GG/	16B-/) 16g/	.
16CC/	(16A/ 16f#/	.
16GG/JJ	16B-/JJ) 16g/	.
*Xrep	*	*
=43	=43	=43
16FF/LL	4A/ 4f/	.
16C/	.	.
16F/	.	.
16C/	.	.
16FF/	(16G#X/LL 16en/	.
16C/JJ	16A/JJ) 16f/	.
!	!LO:TX:b:t=poco a poco	!
*rep	*	*
16FF/LL	(16G#/LL 16e/	.
16C/	16A/) 16f/	.
16F/	(16G#/ 16e/	.
16C/	16A/) 16f/	.
16FF/	(16G#/ 16e/	.
16C/JJ	16A/JJ) 16f/	.
*Xrep	*	*
!!LO:LB:g=original
=44	=44	=44
16FF/LL	4c/ 4a/	.
16E-/	.	.
16A/	.	.
16E-/	.	.
16FF/	16Bn/LL 16g#X/	.
16E-/JJ	16c/JJ 16a/	.
*rep	*	*
16FF/LL	16B/LL 16g#/	.
16E-/	16c/ 16a/	<
16A/	16B/ 16g#/	.
16E-/	16c/ 16a/	.
16FF/	16B/ 16g#/	.
16E-/JJ	16c/JJ 16a/	.
*Xrep	*	*
=45	=45	=45
4FF:/ 4E-/: 4A/:	16ccc\LL 16eee-\	f
.	16ddd\ 16fff\	.
.	16eee-\ 16ggg\	.
.	16ddd\ 16fff\	.
8r	16ccc\ 16eee-\	.
.	16bb-\JJ 16ddd\	.
4r	16aa\LL 16ccc\	.
.	16bb-\ 16ddd\	.
.	16ccc\ 16eee-\	.
.	16bb-\ 16ddd\	.
8r	16aa\ 16ccc\	.
.	16gg\JJ 16bb-\	.
=46	=46	=46
2.r	16ff\LL 16aa\	.
.	16gg\ 16bb-\	.
.	16aa\ 16ccc\	.
.	16gg\ 16bb-\	.
.	16ff\ 16aa\	.
.	16ee-\JJ 16gg\	.
.	16dd\LL 16ff\	.
.	16ee-\ 16gg\	.
.	16dd\ 16ff\	.
.	16cc\ 16ee-\	.
.	16b-\ 16dd\	.
.	16f\JJ 16cc\	.
=47	=47	=47
!LO:TX:a:t=P:problem=mixed beam	!	!
8BB-`>\L 8B-\	4d/ 4b-/	.
8BBB-/J	.	.
8r	16B-/LL 16d/	.
.	16c/JJ 16e-/	.
4r	16d/LL 16f/	.
.	16e-/ 16g/	.
.	16f/ 16a/	.
.	16g/ 16b-/	.
8r	16a/ 16cc/	.
.	16b-/JJ 16dd/	.
!!LO:LB:g=original
=48	=48	=48
2.r	16cc\LL 16ee-\	.
.	16dd\ 16ff\	.
.	16ee-\ 16gg\	.
.	16ff\ 16aa\	.
.	16gg\ 16bb-\	.
.	16aa\JJ 16ccc\	.
*	*8va	*
.	16bb-\LL 16ddd\	.
.	16ccc\ 16eee-\	.
.	16ddd\ 16fff\	.
.	16eee-\ 16ggg\	.
.	16fff\ 16aaa\	.
.	16ggg\JJ 16bbb-\	.
=49	=49	=49
8E-\L 8e-\	4eee-\ 4ggg\	.
8EE-\J	.	.
*	*X8va	*
8r	16e-/LL 16g/	.
.	16f/JJ 16a/	.
4r	16g\LL 16b-\	.
.	16a\ 16cc\	.
.	16b-\ 16dd\	<
.	16cc\ 16ee-\	.
8r	16dd\ 16ff\	.
.	16ee-\JJ 16gg\	.
=50	=50	=50
2.r	16ff\LL 16aa\	.
.	16gg\ 16bb-\	.
.	16aa\ 16ccc\	.
.	16bb-\ 16ddd\	.
.	16ccc\ 16eee-\	.
.	16ddd\JJ 16fff\	.
*	*8va	*
.	16eee-\LL 16ggg\	.
.	16fff\ 16aaa\	.
.	16ggg\ 16bbb-\	.
.	16fff\ 16aaa\	.
.	16ggg\ 16bbb-\	.
.	16eee-\JJ 16ggg\	.
=51	=51	=51
2.FF\ 2.F\	16ddd\LL 16fff\	[ >
.	16bbn\ 16ggg\	.
.	16ccc\ 16eee-\	.
.	16aa\ 16fff\	.
.	16bb-X\ 16ddd\	.
.	16gg\JJ 16eee-\	.
*	*X8va	*
!	!LO:TX:a:t=loco	!
.	16aa\LL 16ccc\	.
.	16ff\ 16ddd\	.
.	16gg\ 16bb-\	.
.	16een\ 16ccc\	.
.	16ff\ 16aa\	.
.	16dd\JJ 16bb-\	.
!!LO:LB:g=original
=52	=52	=52
16FF\LL	(16ee-X\LL 16gg\	.
16F\	16cc\ 16aa\	.
16FF\	16dd\ 16ff\	.
16F\	16b-\ 16gg\	.
16FF\	16cc\ 16ee-\	.
16F\JJ	16a\JJ 16ff\	]
*rep	*	*
16FF\LL	16b-/LL 16dd/	.
16F\	16g/ 16ee-/	.
16FF\	16a/ 16cc/	.
16F\	16f/ 16dd/	.
16FF\	16g/ 16b-/	.
16F\JJ	16en/JJ 16cc/	.
*Xrep	*	*
=53	=53	=53
16FF/	16f/LL 16a/	.
16FF/LL	16d/ 16b-/	.
16FFF/	16e-X/ 16g/	.
16FF/	16c/ 16a/	.
16FFF/	16d/ 16f/	.
16FF/JJ	16B-/JJ 16g/	.
16FFF/LL	16c/LL 16e-/	.
!	!LO:TX:b:t=per-den-do-si	!
16FF/	16A/ 16f/	.
16FFF/	16c/ 16e-/	.
16FF/	16A/ 16g-X/	.
16FFF/	16c/ 16e-/	.
16FF/JJ	16A/JJ) 16f/	.
=54	=54	=54
16FFF\LL	16A</LL 16c</	.
16FF\	16F</ 16e-</	.
16FFF\	16A</ 16c</	.
16FF\	16G-X</ 16e-</	.
16FFF\	16A</ 16c</	.
16FF\JJ	16F</JJ 16e-</	.
*rep	*	*
16FFF\LL	16G-</LL 16A</	.
16FF\	16E-</ 16c</	.
16FFF\	16F</ 16A</	.
16FF\	16E-</ 16c</	.
16FFF\	16G-</ 16A</	.
16FF\JJ	16E-</JJ 16c</	.
*Xrep	*	*
=55	=55	=55
16FFF\LL	16F</LL 16A</	.
16FF\	16E-</ 16c</	.
16FFF\	16G-X</ 16A</	.
16FF\	16E-</ 16c</	.
16FFF\	16F</ 16A</	.
16FF\JJ	16E-</JJ 16c</	.
4BBB-\	4D</ 4F</ 4B-</	.
8rCC	8r	.
=56	=56	=56
4FF:\ 4C\: 4F\:	4e-:\ 4a\: 4cc\: 4ff\:	.
8r	8r	.
4BB-;\ 4D\ 4F\ 4B-\	4d;/ 4f/ 4b-/ 4dd/	.
8r	8r	.
==	==	==
*-	*-	*-
!!!system-decoration: {(s1,s2)}
!!!RDF**kern: > = above
!!!RDF**kern: < = below
!!!RDF**dynam: > = dim
!!!RDF**dynam: < = cres
!!!EED: Leszek Kubiak
!!!EEV: 2020-07-21
!!!ENC: Marcin Jachim
!!!END: 2020-06-16
